src/main/resources/organization/projects.svg

<svg width="24" height="24" viewBox="0 0 24 24" fill="none" xmlns="http://www.w3.org/2000/svg">
    <path d="M16.9497 2L12 6.94971L16.9497 11.8994L21.8994 6.94971L16.9497 2Z" fill="#19191C"/>
    <path d="M10 12H3.101L3 5H10V12Z" fill="#19191C"/>
    <path d="M10 14H3V21H10V14Z" fill="#19191C"/>
    <path d="M12 14H19V21H12V14Z" fill="#19191C"/>
</svg>

<svg xmlns="http://www.w3.org/2000/svg" width="24" height="24" fill="none"><path fill="#19191C" d="M16.95 2 12 6.95l4.95 4.95 4.95-4.95zM10 12H3.101L3 5h7zm0 2H3v7h7zm2 0h7v7h-7z"/></svg>
